packages/core/src/svgs/tokens/branded/REP.svg

<svg width="24" height="24" viewBox="0 0 24 24" fill="none" xmlns="http://www.w3.org/2000/svg">
<path d="M20.8214 15.8411L18.9392 12.6757C18.9225 12.648 18.9003 12.6238 18.8741 12.6048C18.848 12.5857 18.8183 12.572 18.7868 12.5643C18.7551 12.5568 18.7225 12.5557 18.6905 12.5608C18.6586 12.566 18.6279 12.5774 18.6004 12.5945L17.3771 13.3846C17.324 13.4191 17.2862 13.4729 17.2717 13.5346C17.2573 13.5962 17.2672 13.6611 17.2993 13.7157L18.3743 15.5228C18.4065 15.5784 18.3909 15.6528 18.3354 15.6884L12.0673 19.7343C12.0481 19.7471 12.0255 19.754 12.0026 19.754C11.9795 19.754 11.957 19.7471 11.9378 19.7343L5.66581 15.6884C5.63943 15.6709 5.62072 15.6441 5.61348 15.6134C5.60625 15.5825 5.61106 15.5501 5.62692 15.5228L6.70189 13.7157C6.73404 13.6611 6.74389 13.5962 6.7294 13.5346C6.71492 13.4729 6.6772 13.4191 6.62412 13.3846L5.40138 12.5945C5.37407 12.5768 5.3434 12.5647 5.31127 12.5592C5.27914 12.5536 5.24622 12.5546 5.2145 12.5623C5.18279 12.5699 5.15295 12.5838 5.12682 12.6034C5.10069 12.6228 5.07881 12.6474 5.0625 12.6757L3.18034 15.8411C3.11543 15.9498 3.09531 16.0794 3.12423 16.2025C3.15316 16.3257 3.22888 16.4327 3.33535 16.5012L11.7378 21.9221C11.8155 21.9729 11.9063 22 11.9992 22C12.092 22 12.1829 21.9729 12.2605 21.9221L20.6631 16.5012C20.7699 16.4331 20.8461 16.3263 20.8757 16.2032C20.9051 16.08 20.8857 15.9503 20.8214 15.8411Z" fill="white"/>
<path d="M6.55347 10.6074L7.73954 11.4052C7.76603 11.4231 7.796 11.4352 7.8275 11.4408C7.85899 11.4463 7.8913 11.4452 7.92232 11.4375C7.95334 11.4297 7.98239 11.4155 8.00756 11.3958C8.03272 11.3761 8.05346 11.3512 8.06842 11.3229L11.8988 4.60101C11.9087 4.58319 11.9232 4.56835 11.9408 4.55801C11.9585 4.54767 11.9784 4.54223 11.9988 4.54223C12.0193 4.54223 12.0392 4.54767 12.0569 4.55801C12.0744 4.56835 12.0889 4.58319 12.0988 4.60101L15.9326 11.3229C15.9481 11.3508 15.9691 11.375 15.9942 11.3944C16.0195 11.4137 16.0484 11.4277 16.0792 11.4355C16.11 11.4431 16.1421 11.4444 16.1735 11.4392C16.2048 11.434 16.2348 11.4225 16.2615 11.4052L17.4476 10.6074C17.4995 10.5711 17.5361 10.5165 17.55 10.4546C17.564 10.3925 17.5541 10.3275 17.5225 10.2725L12.9437 2.23943C12.9033 2.16777 12.8448 2.10796 12.7741 2.06595C12.7033 2.02394 12.6228 2.00121 12.5405 2H11.4606C11.3781 2.0008 11.2975 2.02338 11.2266 2.06543C11.1558 2.10748 11.0974 2.16751 11.0572 2.23943L6.47847 10.2725C6.4469 10.3275 6.43709 10.3925 6.45097 10.4546C6.46484 10.5165 6.50141 10.5711 6.55347 10.6074Z" fill="#2AE7A8"/>
</svg>

<svg xmlns="http://www.w3.org/2000/svg" width="24" height="24" fill="none" viewBox="0 0 24 24">
    <path fill="#fff" d="m20.821 15.841-1.882-3.165a.24.24 0 0 0-.152-.112.25.25 0 0 0-.187.03l-1.223.79a.246.246 0 0 0-.078.332l1.075 1.807a.124.124 0 0 1-.039.165l-6.268 4.046a.12.12 0 0 1-.13 0l-6.271-4.046a.124.124 0 0 1-.04-.165l1.076-1.807a.246.246 0 0 0-.078-.331l-1.223-.79a.24.24 0 0 0-.338.08L3.18 15.842a.487.487 0 0 0 .155.66l8.403 5.421a.48.48 0 0 0 .523 0l8.402-5.42a.49.49 0 0 0 .158-.66"/>
    <path fill="#2AE7A8" d="m6.553 10.607 1.187.798a.23.23 0 0 0 .328-.082l3.83-6.722a.114.114 0 0 1 .2 0l3.835 6.722a.23.23 0 0 0 .24.116.2.2 0 0 0 .089-.034l1.186-.798a.255.255 0 0 0 .075-.334l-4.58-8.034A.47.47 0 0 0 12.542 2h-1.08a.47.47 0 0 0-.404.24l-4.579 8.033a.254.254 0 0 0 .075.334"/>
</svg>
